public/logo-new.svg

<svg width="127" height="65" viewBox="0 0 127 65" fill="none" xmlns="http://www.w3.org/2000/svg">
<path d="M12.2078 55.9953C11.8315 52.8609 9.4591 51.0605 6.31836 51.0605C2.73634 51.0605 0 53.5916 0 58.0288C0 62.4534 2.68967 65.0001 6.31836 65.0001C9.79789 65.0001 11.8967 62.6868 12.2078 60.1899L9.30675 60.1774C9.03626 61.6264 7.8949 62.4628 6.36503 62.4628C4.30664 62.4628 2.90738 60.9298 2.90738 58.0288C2.90738 55.2054 4.2849 53.5979 6.38691 53.5979C7.95709 53.5979 9.08916 54.5059 9.30675 55.9953H12.2078ZM14.2693 64.8136H23.439V62.4473H17.1393V59.2072H22.9416V56.8442H17.1393V53.6103H23.4142V51.2442H14.2695V64.8137L14.2693 64.8136ZM37.046 51.2441H34.1914V59.7794H34.0701L28.215 51.2441H25.6964V64.8136H28.5664V56.2751H28.666L34.5677 64.8136H37.046V51.2441ZM38.896 53.6102H43.0502V64.8134H45.8859V53.6102H50.0401V51.2441H38.8959V53.6102H38.896ZM51.881 64.8134H61.0507V62.4472H54.751V59.2071H60.5533V56.844H54.751V53.6102H61.0259V51.2441H51.8812V64.8136L51.881 64.8134ZM63.3082 64.8134H66.1784V60.0032H68.2711L70.8426 64.8134H74.0079L71.1254 59.5398C72.6708 58.8775 73.5259 57.5313 73.5259 55.6779C73.5259 52.982 71.7443 51.2439 68.6628 51.2439H63.3082V64.8134ZM66.1784 57.6991V53.5915H68.1124C69.7697 53.5915 70.572 54.3254 70.572 55.678C70.572 57.0213 69.7697 57.6991 68.1247 57.6991H66.1782H66.1784ZM77.1517 64.9845C77.9975 64.9845 78.7343 64.2755 78.7406 63.3956C78.7343 62.5281 77.9974 61.8191 77.1517 61.8191C76.2779 61.8191 75.5534 62.5281 75.5596 63.3956C75.5534 64.2755 76.2779 64.9845 77.1517 64.9845ZM81.1068 64.8134H86.906C89.9532 64.8134 91.5763 63.2246 91.5763 61.0634C91.5763 59.0549 90.1366 57.8421 88.5944 57.7706V57.6369C90.006 57.3199 91.0446 56.3186 91.0446 54.7234C91.0446 52.6899 89.5366 51.2441 86.5392 51.2441H81.107V64.8136L81.1068 64.8134ZM83.9768 62.4689V58.865H86.3805C87.758 58.865 88.613 59.6579 88.613 60.7774C88.613 61.8004 87.9196 62.4689 86.3152 62.4689H83.9768ZM83.9768 56.9216V53.5635H86.1567C87.4284 53.5635 88.1498 54.2196 88.1498 55.1991C88.1498 56.2749 87.2761 56.9217 86.1039 56.9217H83.977L83.9768 56.9216ZM93.4359 64.8133H102.606V62.4471H96.3059V59.207H102.108V56.8439H96.3059V53.6101H102.581V51.2439H93.436V64.8134L93.4359 64.8133ZM104.863 64.8133H114.033V62.4471H107.733V59.207H113.535V56.8439H107.733V53.6101H114.008V51.2439H104.863V64.8134L104.863 64.8133ZM116.29 64.8133H119.16V60.0031H121.253L123.825 64.8133H126.99L124.108 59.5397C125.653 58.8774 126.508 57.5311 126.508 55.6777C126.508 52.9818 124.726 51.2438 121.645 51.2438H116.29V64.8133ZM119.16 57.699V53.5914H121.094C122.752 53.5914 123.554 54.3253 123.554 55.6779C123.554 57.0212 122.752 57.699 121.107 57.699H119.16H119.16Z" fill="#FEFEFE"/>
<path fill-rule="evenodd" clip-rule="evenodd" d="M59.7539 30.7462L70.5984 24.4857L66.5153 22.1284L59.7539 26.0312V30.7462Z" fill="#9D9E9E"/>
<path fill-rule="evenodd" clip-rule="evenodd" d="M51.4895 30.802L49.4703 31.9673V9.87568C55.1518 13.154 60.8324 16.435 66.5135 19.715L70.6679 17.3167C63.4402 13.1433 56.2131 8.96933 48.9845 4.79736L45.3882 6.87356L45.3877 35.0427L48.8484 37.0414L51.4894 35.5172V30.8022L51.4895 30.802Z" fill="#9D9E9E"/>
<path fill-rule="evenodd" clip-rule="evenodd" d="M53.5814 2.14334L53.5807 5.03775L57.6633 7.39499V5.01079L76.9137 16.1243C74.1437 17.7228 71.3745 19.3225 68.6046 20.921C71.3273 22.4925 74.0484 24.0651 76.7701 25.6355L57.6632 36.6672C57.6632 30.1175 57.6632 23.5685 57.6632 17.0188L53.5801 14.6614C53.5801 23.0317 53.5801 31.4025 53.5801 39.7726L57.0143 41.7562L81.6078 27.5565V23.6322C80.019 22.7148 78.4297 21.7981 76.8408 20.8807L81.6078 18.1282V14.0376C73.5094 9.35419 65.3976 4.67862 57.2937 0C56.0565 0.714828 54.8185 1.42851 53.5812 2.14334H53.5814Z" fill="#F4C446"/>
</svg>

<svg xmlns="http://www.w3.org/2000/svg" width="127" height="65" fill="none"><path fill="#FEFEFE" d="M12.208 55.995c-.377-3.134-2.749-4.934-5.89-4.934C2.736 51.06 0 53.59 0 58.028 0 62.453 2.69 65 6.318 65c3.48 0 5.579-2.313 5.89-4.81l-2.901-.013c-.27 1.45-1.412 2.286-2.942 2.286-2.058 0-3.458-1.533-3.458-4.434 0-2.824 1.378-4.431 3.48-4.431 1.57 0 2.702.908 2.92 2.397h2.9Zm2.061 8.819h9.17v-2.367h-6.3v-3.24h5.803v-2.363h-5.803V53.61h6.275v-2.366H14.27v13.57Zm22.777-13.57h-2.855v8.535h-.12l-5.856-8.535h-2.519v13.57h2.87v-8.539h.1l5.902 8.539h2.478v-13.57Zm1.85 2.366h4.154v11.203h2.836V53.61h4.154v-2.366H38.896v2.366Zm12.985 11.203h9.17v-2.366h-6.3v-3.24h5.802v-2.363h-5.802V53.61h6.275v-2.366H51.88v13.57Zm11.427 0h2.87v-4.81h2.093l2.572 4.81h3.165l-2.883-5.273c1.546-.663 2.4-2.009 2.4-3.862 0-2.696-1.78-4.434-4.862-4.434h-5.355v13.57Zm2.87-7.114v-4.107h1.934c1.658 0 2.46.733 2.46 2.086 0 1.343-.802 2.021-2.447 2.021h-1.947Zm10.974 7.285c.846 0 1.582-.709 1.589-1.588-.007-.868-.744-1.577-1.59-1.577-.873 0-1.598.71-1.591 1.577a1.589 1.589 0 0 0 1.592 1.588Zm3.955-.17h5.799c3.047 0 4.67-1.59 4.67-3.75 0-2.01-1.44-3.222-2.982-3.293v-.134c1.412-.317 2.45-1.318 2.45-2.914 0-2.033-1.507-3.479-4.505-3.479h-5.432v13.57Zm2.87-2.345v-3.604h2.403c1.378 0 2.233.793 2.233 1.912 0 1.023-.693 1.692-2.298 1.692h-2.338Zm0-5.547v-3.358h2.18c1.271 0 1.993.656 1.993 1.635 0 1.076-.874 1.723-2.046 1.723h-2.127Zm9.459 7.891h9.17v-2.366h-6.3v-3.24h5.802v-2.363h-5.802V53.61h6.275v-2.366h-9.145v13.57Zm11.427 0h9.17v-2.366h-6.3v-3.24h5.802v-2.363h-5.802V53.61h6.275v-2.366h-9.145v13.57Zm11.427 0h2.87v-4.81h2.093l2.572 4.81h3.165l-2.882-5.273c1.545-.663 2.4-2.009 2.4-3.862 0-2.696-1.782-4.434-4.863-4.434h-5.355v13.57Zm2.87-7.114v-4.108h1.934c1.658 0 2.46.734 2.46 2.087 0 1.343-.802 2.021-2.447 2.021h-1.947Z"/><path fill="#9D9E9E" fill-rule="evenodd" d="m59.754 30.746 10.844-6.26-4.083-2.358-6.761 3.903v4.715Z" clip-rule="evenodd"/><path fill="#9D9E9E" fill-rule="evenodd" d="m51.49 30.802-2.02 1.165V9.876c5.682 3.278 11.362 6.559 17.043 9.839l4.155-2.398c-7.228-4.174-14.455-8.348-21.684-12.52l-3.596 2.077v28.169l3.46 1.998 2.641-1.524v-4.715Z" clip-rule="evenodd"/><path fill="#F4C446" fill-rule="evenodd" d="M53.581 2.143v2.895l4.082 2.357V5.011l19.25 11.113c-2.77 1.599-5.538 3.199-8.308 4.797l8.165 4.715-19.107 11.031V17.02L53.58 14.66v25.112l3.434 1.983 24.594-14.2v-3.924l-4.767-2.751 4.767-2.753v-4.09C73.509 9.354 65.398 4.678 57.294 0L53.58 2.143Z" clip-rule="evenodd"/></svg>
